files/resources/svgs/general/m-beaker.svg

<svg width="20" height="20" viewBox="0 0 20 20" fill="none" xmlns="http://www.w3.org/2000/svg">
<path fill-rule="evenodd" clip-rule="evenodd" d="M8.49999 3.52795V8.17157C8.49999 8.90092 8.21026 9.60039 7.69453 10.1161L6.47812 11.3325C7.68604 11.2911 8.89515 11.5003 10.0275 11.9532L10.5296 12.1541C11.8561 12.6847 13.3098 12.8115 14.708 12.5187L12.3054 10.1161C11.7897 9.60039 11.5 8.90092 11.5 8.17157V3.52795C11.0023 3.50937 10.5023 3.5 9.99999 3.5C9.49771 3.5 8.99766 3.50937 8.49999 3.52795ZM13 3.61218C13.0635 3.61695 13.1269 3.62186 13.1903 3.62693C13.6032 3.65992 13.9646 3.35194 13.9976 2.93905C14.0306 2.52615 13.7226 2.16468 13.3097 2.13169C12.9714 2.10466 12.6319 2.08173 12.2913 2.06296C11.5327 2.02117 10.7688 2 9.99999 2C9.23118 2 8.46724 2.02117 7.70873 2.06296C7.36812 2.08173 7.02862 2.10466 6.69025 2.13169C6.27736 2.16468 5.96938 2.52615 6.00237 2.93905C6.03536 3.35194 6.39683 3.65992 6.80973 3.62693C6.8731 3.62186 6.93653 3.61695 6.99999 3.61218V8.17157C6.99999 8.50309 6.86829 8.82104 6.63387 9.05546L2.60034 13.089C1.10385 14.5855 1.78334 17.2391 4.00336 17.5645C5.9611 17.8515 7.96343 18 9.99999 18C12.0366 18 14.0389 17.8515 15.9966 17.5645C18.2166 17.2391 18.8961 14.5855 17.3996 13.089L13.3661 9.05546C13.1317 8.82104 13 8.50309 13 8.17157V3.61218Z" fill="#0F172A"/>
</svg>

<svg xmlns="http://www.w3.org/2000/svg" viewBox="0 0 20 20" fill="currentColor" aria-hidden="true">
  <path fill-rule="evenodd" d="M8.5 3.528v4.644c0 .729-.29 1.428-.805 1.944l-1.217 1.216a8.75 8.75 0 013.55.621l.502.201a7.25 7.25 0 004.178.365l-2.403-2.403a2.75 2.75 0 01-.805-1.944V3.528a40.205 40.205 0 00-3 0zm4.5.084l.19.015a.75.75 0 10.12-1.495 41.364 41.364 0 00-6.62 0 .75.75 0 00.12 1.495L7 3.612v4.56c0 .331-.132.649-.366.883L2.6 13.09c-1.496 1.496-.817 4.15 1.403 4.475C5.961 17.852 7.963 18 10 18s4.039-.148 5.997-.436c2.22-.325 2.9-2.979 1.403-4.475l-4.034-4.034A1.25 1.25 0 0113 8.172v-4.56z" clip-rule="evenodd"/>
</svg>
